outline/svg/airline_seat_recline_extra.svg

<svg xmlns="http://www.w3.org/2000/svg" width="24" height="24"><path fill="none" d="M0 0h24v24H0V0z"/><g fill="currentColor"><path d="M5.35 5.64c-.9-.64-1.12-1.88-.49-2.79.63-.9 1.88-1.12 2.79-.49.9.64 1.12 1.88.49 2.79-.64.9-1.88 1.12-2.79.49zM16 19H8.93c-1.48 0-2.74-1.08-2.96-2.54L4 7H2l1.99 9.76A5.01 5.01 0 0 0 8.94 21H16v-2zm.23-4h-4.88l-1.03-4.1c1.58.89 3.28 1.54 5.15 1.22V9.99c-1.63.31-3.44-.27-4.69-1.25L9.14 7.47c-.23-.18-.49-.3-.76-.38a2.21 2.21 0 0 0-.99-.06h-.02a2.268 2.268 0 0 0-1.84 2.61l1.35 5.92A3.008 3.008 0 0 0 9.83 18h6.85l3.82 3 1.5-1.5-5.77-4.5z"/></g></svg>

<?xml version="1.0" encoding="utf-8"?>
<!-- Generator: Adobe Illustrator 19.1.0, SVG Export Plug-In . SVG Version: 6.00 Build 0)  -->
<svg version="1.1" xmlns="http://www.w3.org/2000/svg" xmlns:xlink="http://www.w3.org/1999/xlink" x="0px" y="0px" width="24px"
	 height="24px" viewBox="0 0 24 24" enable-background="new 0 0 24 24" xml:space="preserve">
<g id="Bounding_Boxes">
	<g id="ui_x5F_spec_x5F_header_copy_2">
	</g>
	<path fill="none" d="M0,0h24v24H0V0z"/>
</g>
<g id="Outline" fill="currentColor">
	<g id="ui_x5F_spec_x5F_header">
	</g>
	<path d="M5.35,5.64C4.45,5,4.23,3.76,4.86,2.85c0.63-0.9,1.88-1.12,2.79-0.49C8.55,3,8.77,4.24,8.14,5.15
		C7.5,6.05,6.26,6.27,5.35,5.64z M16,19H8.93c-1.48,0-2.74-1.08-2.96-2.54L4,7H2l1.99,9.76C4.37,19.2,6.47,21,8.94,21H16V19z
		 M16.23,15h-4.88l-1.03-4.1c1.58,0.89,3.28,1.54,5.15,1.22V9.99c-1.63,0.31-3.44-0.27-4.69-1.25L9.14,7.47
		c-0.23-0.18-0.49-0.3-0.76-0.38C8.06,7,7.72,6.97,7.39,7.03H7.37C6.14,7.25,5.32,8.42,5.53,9.64l1.35,5.92
		C7.16,16.98,8.39,18,9.83,18h6.85l3.82,3l1.5-1.5L16.23,15z"/>
</g>
</svg>
